X: 31422
T: Paddy Ryan's Dream
R: reel
M: 4/4
K: Aminor
cB|:AE (3E^DE cABG|EB,DB, G,A,B,G,|A,AED ^CEAB|cABG ABcB|
AE (3E^DE cABG|EB,DB, G,A,B,G,|A,AED ^CEAB|1 (3c^dc Bc ABcB:|2 (3c^dc Bc (3A^AB cB||
|:Aaa^g aecA|Ggg^f gdBG|Aaa^g aecB|edcB (3cec BG|
Aaa^g aecA|Ggg^f gdBG|(3ABc Bd cedf|1 edcB ABcB:|2 edcB A4||

